X: 1
T: the Coventry Carol
O: England
R: waltz
Z: 2011 John Chambers <jc:trillian.mit.edu> 
M: 3/4
L: 1/4
K: Am
[|\
"Am"A A "E7"^G | "Am"A2 c | "Dm"B2 A | "E7"^G3 |\
"Am"A B c | "Dm"d2 "E7"B | "Am"A3- | A z "C"e |
"G"d2 "Am"c | "E7"B2 "Am"c | "Dm"B2 A | "E7"^G3 |\
"Am"A "E"^G "F"A | "Dm"d2 "E7"B | "A"^c3- | c2 z |]
